X:709
T: ALLES IST VERGAENGLICH
N: E2149A
O: Europa, Mitteleuropa, Deutschland, Schlesien
R: geistlich, Moral - Lied, Vergaenglichkeit
M: 4/4
L: 1/8
K: F
 | F3GA2B2 | c4A2z2 |
c2BAG2G2 | A4z2
c2 | c2BAG2G2 | A3Bc2
c2 | c2BAG2G2 | A3Bc2z2 |
c2BAG2G2 | F4z4

@@@ Tune index: 5393
